material/.icons/material/bank-outline.svg

<svg xmlns="http://www.w3.org/2000/svg" viewBox="0 0 24 24"><path d="M6.5 10h-2v7h2v-7m6 0h-2v7h2v-7m8.5 9H2v2h19v-2m-2.5-9h-2v7h2v-7m-7-6.74L16.71 6H6.29l5.21-2.74m0-2.26L2 6v2h19V6l-9.5-5z"/></svg>

<?xml version="1.0" encoding="UTF-8"?><!DOCTYPE svg PUBLIC "-//W3C//DTD SVG 1.1//EN" "http://www.w3.org/Graphics/SVG/1.1/DTD/svg11.dtd"><svg xmlns="http://www.w3.org/2000/svg" xmlns:xlink="http://www.w3.org/1999/xlink" version="1.1" id="mdi-bank-outline" width="24" height="24" viewBox="0 0 24 24"><path d="M6.5,10H4.5V17H6.5V10M12.5,10H10.5V17H12.5V10M21,19H2V21H21V19M18.5,10H16.5V17H18.5V10M11.5,3.26L16.71,6H6.29L11.5,3.26M11.5,1L2,6V8H21V6L11.5,1Z" /></svg>
